src/images/medium-icon.svg

<?xml version="1.0" encoding="UTF-8"?>
<svg width="25px" height="24px" viewBox="0 0 25 24" version="1.1" xmlns="http://www.w3.org/2000/svg" xmlns:xlink="http://www.w3.org/1999/xlink">
    <!-- Generator: Sketch 52.1 (67048) - http://www.bohemiancoding.com/sketch -->
    <title>medium-icon</title>
    <desc>Created with Sketch.</desc>
    <defs>
        <polygon id="path-1" points="0 0 24 0 24 24 0 24"></polygon>
    </defs>
    <g id="Progress" stroke="none" stroke-width="1" fill="none" fill-rule="evenodd">
        <g id="Homepage--/-Layout" transform="translate(-275.000000, -7818.000000)">
            <g id="footer-bottom" transform="translate(0.000000, 7782.000000)">
                <g id="social" transform="translate(123.000000, 36.000000)">
                    <g id="medium-icon" transform="translate(152.800000, 0.000000)">
                        <mask id="mask-2" fill="white">
                            <use xlink:href="#path-1"></use>
                        </mask>
                        <g id="Clip-2"></g>
                        <path d="M19.9384615,5.68627692 L18.6513231,6.92036923 C18.5404308,7.00492308 18.4852923,7.144 18.5083077,7.2816 L18.5083077,16.3491692 C18.4852923,16.4867692 18.5404308,16.6257231 18.6513231,16.7104 L19.9083077,17.9444923 L19.9083077,18.2153846 L13.5856,18.2153846 L13.5856,17.9444923 L14.8877538,16.6802462 C15.0157538,16.5523692 15.0157538,16.5147077 15.0157538,16.3191385 L15.0157538,8.98978462 L11.3952,18.1852308 L10.9059692,18.1852308 L6.69070769,8.98978462 L6.69070769,15.1527385 C6.65563077,15.4118154 6.74166154,15.6727385 6.92406154,15.8600615 L8.61772308,17.9143385 L8.61772308,18.1852308 L3.81538462,18.1852308 L3.81538462,17.9143385 L5.50904615,15.8600615 C5.69009231,15.6723692 5.7712,15.4097231 5.72726154,15.1527385 L5.72726154,8.02658462 C5.74732308,7.82855385 5.67175385,7.63298462 5.52406154,7.49981538 L4.01858462,5.68627692 L4.01858462,5.41538462 L8.69292308,5.41538462 L12.3059692,13.3392 L15.4823385,5.41538462 L19.9384615,5.41538462 L19.9384615,5.68627692 Z M0,24 L24,24 L24,0 L0,0 L0,24 Z" id="Fill-1" fill="#FFFFFF" mask="url(#mask-2)"></path>
                    </g>
                </g>
            </g>
        </g>
    </g>
</svg>

<svg width="25" height="24" xmlns="http://www.w3.org/2000/svg" xmlns:xlink="http://www.w3.org/1999/xlink"><defs><path id="a" d="M0 0h24v24H0z"/></defs><g transform="translate(.8)" fill="none" fill-rule="evenodd"><mask id="b" fill="#fff"><use xlink:href="#a"/></mask><path d="M19.938 5.686L18.651 6.92a.376.376 0 0 0-.143.362v9.067a.376.376 0 0 0 .143.361l1.257 1.234v.271h-6.322v-.27l1.302-1.265c.128-.128.128-.165.128-.36V8.99l-3.62 9.195h-.49L6.691 8.99v6.163a.85.85 0 0 0 .233.707l1.694 2.054v.271H3.815v-.27L5.51 15.86a.82.82 0 0 0 .218-.707V8.027a.625.625 0 0 0-.203-.527L4.02 5.686v-.27h4.674l3.613 7.923 3.176-7.924h4.456v.271zM0 24h24V0H0v24z" fill="#FFF" mask="url(#b)"/></g></svg>
